images/3233808.svg

<?xml version="1.0" encoding="UTF-8"?>
<svg xmlns="http://www.w3.org/2000/svg" xmlns:xlink="http://www.w3.org/1999/xlink" width="300pt" height="300pt" viewBox="0 0 300 300" version="1.1">
<defs>
<g>
<symbol overflow="visible" id="glyph0-0">
<path style="stroke:none;" d="M 0.453125 1.59375 L 0.453125 -6.34375 L 4.953125 -6.34375 L 4.953125 1.59375 Z M 0.953125 1.09375 L 4.453125 1.09375 L 4.453125 -5.84375 L 0.953125 -5.84375 Z M 0.953125 1.09375 "/>
</symbol>
<symbol overflow="visible" id="glyph0-1">
<path style="stroke:none;" d="M 0.890625 -6.5625 L 2.078125 -6.5625 L 4.984375 -1.078125 L 4.984375 -6.5625 L 5.84375 -6.5625 L 5.84375 0 L 4.65625 0 L 1.75 -5.484375 L 1.75 0 L 0.890625 0 Z M 0.890625 -6.5625 "/>
</symbol>
<symbol overflow="visible" id="glyph0-2">
<path style="stroke:none;" d="M 3.546875 -5.953125 C 2.898438 -5.953125 2.382812 -5.710938 2 -5.234375 C 1.625 -4.753906 1.4375 -4.101562 1.4375 -3.28125 C 1.4375 -2.445312 1.625 -1.789062 2 -1.3125 C 2.382812 -0.832031 2.898438 -0.59375 3.546875 -0.59375 C 4.191406 -0.59375 4.703125 -0.832031 5.078125 -1.3125 C 5.453125 -1.789062 5.640625 -2.445312 5.640625 -3.28125 C 5.640625 -4.101562 5.453125 -4.753906 5.078125 -5.234375 C 4.703125 -5.710938 4.191406 -5.953125 3.546875 -5.953125 Z M 3.546875 -6.6875 C 4.460938 -6.6875 5.195312 -6.375 5.75 -5.75 C 6.300781 -5.132812 6.578125 -4.3125 6.578125 -3.28125 C 6.578125 -2.238281 6.300781 -1.410156 5.75 -0.796875 C 5.195312 -0.179688 4.460938 0.125 3.546875 0.125 C 2.617188 0.125 1.878906 -0.179688 1.328125 -0.796875 C 0.773438 -1.410156 0.5 -2.238281 0.5 -3.28125 C 0.5 -4.3125 0.773438 -5.132812 1.328125 -5.75 C 1.878906 -6.375 2.617188 -6.6875 3.546875 -6.6875 Z M 3.546875 -6.6875 "/>
</symbol>
<symbol overflow="visible" id="glyph0-3">
<path style="stroke:none;" d="M 0.890625 -6.5625 L 1.765625 -6.5625 L 1.765625 -3.875 L 5 -3.875 L 5 -6.5625 L 5.890625 -6.5625 L 5.890625 0 L 5 0 L 5 -3.125 L 1.765625 -3.125 L 1.765625 0 L 0.890625 0 Z M 0.890625 -6.5625 "/>
</symbol>
</g>
</defs>
<g id="surface49961">
<rect x="0" y="0" width="300" height="300" style="fill:rgb(100%,100%,100%);fill-opacity:1;stroke:none;"/>
<path style="fill:none;stroke-width:1.2;stroke-linecap:butt;stroke-linejoin:miter;stroke:rgb(0%,0%,0%);stroke-opacity:1;stroke-miterlimit:10;" d="M 79.269531 124.214844 L 71.28125 127.679688 "/>
<path style="fill:none;stroke-width:1.2;stroke-linecap:butt;stroke-linejoin:miter;stroke:rgb(0%,0%,100%);stroke-opacity:1;stroke-miterlimit:10;" d="M 71.28125 127.679688 L 63.296875 131.148438 "/>
<path style="fill:none;stroke-width:1.2;stroke-linecap:butt;stroke-linejoin:miter;stroke:rgb(0%,0%,100%);stroke-opacity:1;stroke-miterlimit:10;" d="M 63.296875 131.148438 L 55.796875 126.722656 "/>
<path style="fill:none;stroke-width:1.2;stroke-linecap:butt;stroke-linejoin:miter;stroke:rgb(0%,0%,0%);stroke-opacity:1;stroke-miterlimit:10;" d="M 55.796875 126.722656 L 48.300781 122.296875 "/>
<path style="fill:none;stroke-width:1.2;stroke-linecap:butt;stroke-linejoin:miter;stroke:rgb(0%,0%,0%);stroke-opacity:1;stroke-miterlimit:10;" d="M 59.515625 148.144531 L 61.40625 139.644531 "/>
<path style="fill:none;stroke-width:1.2;stroke-linecap:butt;stroke-linejoin:miter;stroke:rgb(0%,0%,100%);stroke-opacity:1;stroke-miterlimit:10;" d="M 61.40625 139.644531 L 63.296875 131.148438 "/>
<path style=" stroke:none;fill-rule:nonzero;fill:rgb(100%,100%,100%);fill-opacity:1;" d="M 60.296875 125.648438 L 67.296875 125.648438 L 67.296875 136.648438 L 60.296875 136.648438 Z M 60.296875 125.648438 "/>
<g style="fill:rgb(0%,0%,100%);fill-opacity:1;">
  <use xlink:href="#glyph0-1" x="60.296875" y="134.311523"/>
</g>
<path style="fill:none;stroke-width:1.2;stroke-linecap:butt;stroke-linejoin:miter;stroke:rgb(0%,0%,0%);stroke-opacity:1;stroke-miterlimit:10;" d="M 48.300781 122.296875 L 35.25 133.828125 "/>
<path style="fill:none;stroke-width:1.2;stroke-linecap:butt;stroke-linejoin:miter;stroke:rgb(0%,0%,0%);stroke-opacity:1;stroke-miterlimit:10;" d="M 49.707031 126.523438 L 39.265625 135.746094 "/>
<path style="fill:none;stroke-width:1.2;stroke-linecap:butt;stroke-linejoin:miter;stroke:rgb(0%,0%,0%);stroke-opacity:1;stroke-miterlimit:10;" d="M 35.25 133.828125 L 42.179688 149.800781 "/>
<path style="fill:none;stroke-width:1.2;stroke-linecap:butt;stroke-linejoin:miter;stroke:rgb(0%,0%,0%);stroke-opacity:1;stroke-miterlimit:10;" d="M 42.179688 149.800781 L 59.515625 148.144531 "/>
<path style="fill:none;stroke-width:1.2;stroke-linecap:butt;stroke-linejoin:miter;stroke:rgb(0%,0%,0%);stroke-opacity:1;stroke-miterlimit:10;" d="M 43.523438 145.554688 L 57.390625 144.230469 "/>
<path style="fill:none;stroke-width:1.2;stroke-linecap:butt;stroke-linejoin:miter;stroke:rgb(0%,0%,0%);stroke-opacity:1;stroke-miterlimit:10;" d="M 59.515625 148.144531 L 71.042969 161.191406 "/>
<path style="fill:none;stroke-width:1.2;stroke-linecap:butt;stroke-linejoin:miter;stroke:rgb(0%,0%,0%);stroke-opacity:1;stroke-miterlimit:10;" d="M 69.101562 160.542969 L 66.332031 168.796875 "/>
<path style="fill:none;stroke-width:1.2;stroke-linecap:butt;stroke-linejoin:miter;stroke:rgb(100%,0%,0%);stroke-opacity:1;stroke-miterlimit:10;" d="M 66.332031 168.796875 L 63.5625 177.050781 "/>
<path style="fill:none;stroke-width:1.2;stroke-linecap:butt;stroke-linejoin:miter;stroke:rgb(0%,0%,0%);stroke-opacity:1;stroke-miterlimit:10;" d="M 72.984375 161.84375 L 70.214844 170.097656 "/>
<path style="fill:none;stroke-width:1.2;stroke-linecap:butt;stroke-linejoin:miter;stroke:rgb(100%,0%,0%);stroke-opacity:1;stroke-miterlimit:10;" d="M 70.214844 170.097656 L 67.449219 178.351562 "/>
<path style="fill:none;stroke-width:1.2;stroke-linecap:butt;stroke-linejoin:miter;stroke:rgb(0%,0%,0%);stroke-opacity:1;stroke-miterlimit:10;" d="M 71.042969 161.191406 L 79.574219 159.464844 "/>
<path style="fill:none;stroke-width:1.2;stroke-linecap:butt;stroke-linejoin:miter;stroke:rgb(0%,0%,100%);stroke-opacity:1;stroke-miterlimit:10;" d="M 79.574219 159.464844 L 88.109375 157.734375 "/>
<path style=" stroke:none;fill-rule:nonzero;fill:rgb(100%,100%,100%);fill-opacity:1;" d="M 57.503906 172.203125 L 65.503906 172.203125 L 65.503906 183.203125 L 57.503906 183.203125 Z M 57.503906 172.203125 "/>
<g style="fill:rgb(100%,0%,0%);fill-opacity:1;">
  <use xlink:href="#glyph0-2" x="57.503906" y="180.866211"/>
</g>
<path style="fill:none;stroke-width:1.2;stroke-linecap:butt;stroke-linejoin:miter;stroke:rgb(0%,0%,100%);stroke-opacity:1;stroke-miterlimit:10;" d="M 88.109375 157.734375 L 93.871094 164.257812 "/>
<path style="fill:none;stroke-width:1.2;stroke-linecap:butt;stroke-linejoin:miter;stroke:rgb(0%,0%,0%);stroke-opacity:1;stroke-miterlimit:10;" d="M 93.871094 164.257812 L 99.636719 170.785156 "/>
<path style="fill:none;stroke-width:1.2;stroke-linecap:butt;stroke-linejoin:miter;stroke:rgb(0%,0%,0%);stroke-opacity:1;stroke-miterlimit:10;" d="M 93.644531 141.226562 L 90.875 149.480469 "/>
<path style="fill:none;stroke-width:1.2;stroke-linecap:butt;stroke-linejoin:miter;stroke:rgb(0%,0%,100%);stroke-opacity:1;stroke-miterlimit:10;" d="M 90.875 149.480469 L 88.109375 157.734375 "/>
<path style=" stroke:none;fill-rule:nonzero;fill:rgb(100%,100%,100%);fill-opacity:1;" d="M 85.109375 152.234375 L 92.109375 152.234375 L 92.109375 163.234375 L 85.109375 163.234375 Z M 85.109375 152.234375 "/>
<g style="fill:rgb(0%,0%,100%);fill-opacity:1;">
  <use xlink:href="#glyph0-1" x="85.109375" y="160.897461"/>
</g>
<path style="fill:none;stroke-width:1.2;stroke-linecap:butt;stroke-linejoin:miter;stroke:rgb(0%,0%,0%);stroke-opacity:1;stroke-miterlimit:10;" d="M 99.636719 170.785156 L 116.699219 167.324219 "/>
<path style="fill:none;stroke-width:1.2;stroke-linecap:butt;stroke-linejoin:miter;stroke:rgb(0%,0%,0%);stroke-opacity:1;stroke-miterlimit:10;" d="M 116.699219 167.324219 L 122.238281 150.816406 "/>
<path style="fill:none;stroke-width:1.2;stroke-linecap:butt;stroke-linejoin:miter;stroke:rgb(0%,0%,0%);stroke-opacity:1;stroke-miterlimit:10;" d="M 122.238281 150.816406 L 110.710938 137.765625 "/>
<path style="fill:none;stroke-width:1.2;stroke-linecap:butt;stroke-linejoin:miter;stroke:rgb(0%,0%,0%);stroke-opacity:1;stroke-miterlimit:10;" d="M 122.238281 150.816406 L 133.765625 163.867188 "/>
<path style="fill:none;stroke-width:1.2;stroke-linecap:butt;stroke-linejoin:miter;stroke:rgb(0%,0%,0%);stroke-opacity:1;stroke-miterlimit:10;" d="M 127.773438 134.308594 L 122.238281 150.816406 "/>
<path style="fill:none;stroke-width:1.2;stroke-linecap:butt;stroke-linejoin:miter;stroke:rgb(0%,0%,0%);stroke-opacity:1;stroke-miterlimit:10;" d="M 110.710938 137.765625 L 93.644531 141.226562 "/>
<path style="fill:none;stroke-width:1.2;stroke-linecap:butt;stroke-linejoin:miter;stroke:rgb(0%,0%,0%);stroke-opacity:1;stroke-miterlimit:10;" d="M 133.765625 163.867188 L 150.832031 160.40625 "/>
<path style="fill:none;stroke-width:1.2;stroke-linecap:butt;stroke-linejoin:miter;stroke:rgb(0%,0%,0%);stroke-opacity:1;stroke-miterlimit:10;" d="M 150.832031 160.40625 L 153.601562 152.152344 "/>
<path style="fill:none;stroke-width:1.2;stroke-linecap:butt;stroke-linejoin:miter;stroke:rgb(0%,0%,100%);stroke-opacity:1;stroke-miterlimit:10;" d="M 153.601562 152.152344 L 156.367188 143.898438 "/>
<path style="fill:none;stroke-width:1.2;stroke-linecap:butt;stroke-linejoin:miter;stroke:rgb(0%,0%,100%);stroke-opacity:1;stroke-miterlimit:10;" d="M 156.367188 143.898438 L 150.605469 137.375 "/>
<path style="fill:none;stroke-width:1.2;stroke-linecap:butt;stroke-linejoin:miter;stroke:rgb(0%,0%,0%);stroke-opacity:1;stroke-miterlimit:10;" d="M 150.605469 137.375 L 144.839844 130.847656 "/>
<path style="fill:none;stroke-width:1.2;stroke-linecap:butt;stroke-linejoin:miter;stroke:rgb(0%,0%,100%);stroke-opacity:1;stroke-miterlimit:10;" d="M 156.367188 143.898438 L 164.902344 142.167969 "/>
<path style="fill:none;stroke-width:1.2;stroke-linecap:butt;stroke-linejoin:miter;stroke:rgb(0%,0%,0%);stroke-opacity:1;stroke-miterlimit:10;" d="M 164.902344 142.167969 L 173.433594 140.441406 "/>
<path style=" stroke:none;fill-rule:nonzero;fill:rgb(100%,100%,100%);fill-opacity:1;" d="M 153.367188 138.398438 L 160.367188 138.398438 L 160.367188 149.398438 L 153.367188 149.398438 Z M 153.367188 138.398438 "/>
<g style="fill:rgb(0%,0%,100%);fill-opacity:1;">
  <use xlink:href="#glyph0-1" x="153.367188" y="147.061523"/>
</g>
<path style="fill:none;stroke-width:1.2;stroke-linecap:butt;stroke-linejoin:miter;stroke:rgb(0%,0%,0%);stroke-opacity:1;stroke-miterlimit:10;" d="M 144.839844 130.847656 L 127.773438 134.308594 "/>
<path style="fill:none;stroke-width:1.2;stroke-linecap:butt;stroke-linejoin:miter;stroke:rgb(0%,0%,0%);stroke-opacity:1;stroke-miterlimit:10;" d="M 175.375 141.089844 L 178.144531 132.835938 "/>
<path style="fill:none;stroke-width:1.2;stroke-linecap:butt;stroke-linejoin:miter;stroke:rgb(100%,0%,0%);stroke-opacity:1;stroke-miterlimit:10;" d="M 178.144531 132.835938 L 180.914062 124.582031 "/>
<path style="fill:none;stroke-width:1.2;stroke-linecap:butt;stroke-linejoin:miter;stroke:rgb(0%,0%,0%);stroke-opacity:1;stroke-miterlimit:10;" d="M 171.492188 139.789062 L 174.261719 131.535156 "/>
<path style="fill:none;stroke-width:1.2;stroke-linecap:butt;stroke-linejoin:miter;stroke:rgb(100%,0%,0%);stroke-opacity:1;stroke-miterlimit:10;" d="M 174.261719 131.535156 L 177.027344 123.28125 "/>
<path style="fill:none;stroke-width:1.2;stroke-linecap:butt;stroke-linejoin:miter;stroke:rgb(0%,0%,0%);stroke-opacity:1;stroke-miterlimit:10;" d="M 173.433594 140.441406 L 179.199219 146.964844 "/>
<path style="fill:none;stroke-width:1.2;stroke-linecap:butt;stroke-linejoin:miter;stroke:rgb(0%,0%,100%);stroke-opacity:1;stroke-miterlimit:10;" d="M 179.199219 146.964844 L 184.960938 153.488281 "/>
<path style=" stroke:none;fill-rule:nonzero;fill:rgb(100%,100%,100%);fill-opacity:1;" d="M 174.96875 118.433594 L 182.96875 118.433594 L 182.96875 129.433594 L 174.96875 129.433594 Z M 174.96875 118.433594 "/>
<g style="fill:rgb(100%,0%,0%);fill-opacity:1;">
  <use xlink:href="#glyph0-2" x="174.96875" y="127.09668"/>
</g>
<path style="fill:none;stroke-width:1.2;stroke-linecap:butt;stroke-linejoin:miter;stroke:rgb(0%,0%,100%);stroke-opacity:1;stroke-miterlimit:10;" d="M 184.960938 153.488281 L 193.492188 151.761719 "/>
<path style="fill:none;stroke-width:1.2;stroke-linecap:butt;stroke-linejoin:miter;stroke:rgb(0%,0%,0%);stroke-opacity:1;stroke-miterlimit:10;" d="M 193.492188 151.761719 L 202.027344 150.03125 "/>
<path style=" stroke:none;fill-rule:nonzero;fill:rgb(100%,100%,100%);fill-opacity:1;" d="M 177.960938 147.988281 L 191.960938 147.988281 L 191.960938 158.988281 L 177.960938 158.988281 Z M 177.960938 147.988281 "/>
<g style="fill:rgb(0%,0%,100%);fill-opacity:1;">
  <use xlink:href="#glyph0-1" x="177.960938" y="156.651367"/>
  <use xlink:href="#glyph0-3" x="184.938477" y="156.651367"/>
</g>
<path style="fill:none;stroke-width:1.2;stroke-linecap:butt;stroke-linejoin:miter;stroke:rgb(0%,0%,0%);stroke-opacity:1;stroke-miterlimit:10;" d="M 202.027344 150.03125 L 213.554688 163.082031 "/>
<path style="fill:none;stroke-width:1.2;stroke-linecap:butt;stroke-linejoin:miter;stroke:rgb(0%,0%,0%);stroke-opacity:1;stroke-miterlimit:10;" d="M 206.25 148.625 L 215.472656 159.0625 "/>
<path style="fill:none;stroke-width:1.2;stroke-linecap:butt;stroke-linejoin:miter;stroke:rgb(0%,0%,0%);stroke-opacity:1;stroke-miterlimit:10;" d="M 207.5625 133.523438 L 202.027344 150.03125 "/>
<path style="fill:none;stroke-width:1.2;stroke-linecap:butt;stroke-linejoin:miter;stroke:rgb(0%,0%,0%);stroke-opacity:1;stroke-miterlimit:10;" d="M 213.554688 163.082031 L 230.621094 159.621094 "/>
<path style="fill:none;stroke-width:1.2;stroke-linecap:butt;stroke-linejoin:miter;stroke:rgb(0%,0%,0%);stroke-opacity:1;stroke-miterlimit:10;" d="M 230.621094 159.621094 L 236.15625 143.113281 "/>
<path style="fill:none;stroke-width:1.2;stroke-linecap:butt;stroke-linejoin:miter;stroke:rgb(0%,0%,0%);stroke-opacity:1;stroke-miterlimit:10;" d="M 227.289062 156.667969 L 231.71875 143.460938 "/>
<path style="fill:none;stroke-width:1.2;stroke-linecap:butt;stroke-linejoin:miter;stroke:rgb(0%,0%,0%);stroke-opacity:1;stroke-miterlimit:10;" d="M 236.15625 143.113281 L 224.628906 130.0625 "/>
<path style="fill:none;stroke-width:1.2;stroke-linecap:butt;stroke-linejoin:miter;stroke:rgb(0%,0%,0%);stroke-opacity:1;stroke-miterlimit:10;" d="M 236.15625 143.113281 L 244.6875 141.382812 "/>
<path style="fill:none;stroke-width:1.2;stroke-linecap:butt;stroke-linejoin:miter;stroke:rgb(100%,0%,0%);stroke-opacity:1;stroke-miterlimit:10;" d="M 244.6875 141.382812 L 253.222656 139.652344 "/>
<path style="fill:none;stroke-width:1.2;stroke-linecap:butt;stroke-linejoin:miter;stroke:rgb(0%,0%,0%);stroke-opacity:1;stroke-miterlimit:10;" d="M 224.628906 130.0625 L 207.5625 133.523438 "/>
<path style="fill:none;stroke-width:1.2;stroke-linecap:butt;stroke-linejoin:miter;stroke:rgb(0%,0%,0%);stroke-opacity:1;stroke-miterlimit:10;" d="M 223.734375 134.425781 L 210.085938 137.191406 "/>
<path style="fill:none;stroke-width:1.2;stroke-linecap:butt;stroke-linejoin:miter;stroke:rgb(100%,0%,0%);stroke-opacity:1;stroke-miterlimit:10;" d="M 253.222656 139.652344 L 258.984375 146.179688 "/>
<path style="fill:none;stroke-width:1.2;stroke-linecap:butt;stroke-linejoin:miter;stroke:rgb(0%,0%,0%);stroke-opacity:1;stroke-miterlimit:10;" d="M 258.984375 146.179688 L 264.75 152.703125 "/>
<path style=" stroke:none;fill-rule:nonzero;fill:rgb(100%,100%,100%);fill-opacity:1;" d="M 249.222656 134.152344 L 257.222656 134.152344 L 257.222656 145.152344 L 249.222656 145.152344 Z M 249.222656 134.152344 "/>
<g style="fill:rgb(100%,0%,0%);fill-opacity:1;">
  <use xlink:href="#glyph0-2" x="249.222656" y="142.81543"/>
</g>
</g>
</svg>

<svg xmlns="http://www.w3.org/2000/svg" xmlns:xlink="http://www.w3.org/1999/xlink" width="300pt" height="300pt" viewBox="0 0 300 300"><defs><symbol overflow="visible"><path d="M.453 1.594v-7.938h4.5v7.938zm.5-.5h3.5v-6.938h-3.5zm0 0"/></symbol><symbol overflow="visible" id="a"><path d="M.89-6.563H2.08l2.906 5.485v-5.484h.86V0H4.656L1.75-5.484V0H.89zm0 0"/></symbol><symbol overflow="visible" id="b"><path d="M3.547-5.953c-.65 0-1.164.242-1.547.72-.375.48-.563 1.13-.563 1.952 0 .835.188 1.49.563 1.967.383.48.898.72 1.547.72.644 0 1.156-.24 1.53-.72.376-.476.564-1.132.564-1.968 0-.822-.187-1.474-.562-1.954-.375-.477-.887-.72-1.53-.72zm0-.734c.914 0 1.648.312 2.203.937.55.617.828 1.438.828 2.47 0 1.042-.277 1.87-.828 2.483-.555.617-1.29.922-2.203.922-.93 0-1.668-.305-2.22-.922C.774-1.41.5-2.237.5-3.28c0-1.033.273-1.853.828-2.47.55-.625 1.29-.938 2.22-.938zm0 0"/></symbol><symbol overflow="visible" id="c"><path d="M.89-6.563h.876v2.688H5v-2.688h.89V0H5v-3.125H1.766V0H.89zm0 0"/></symbol></defs><g><path fill="#fff" d="M0 0h300v300H0z"/><path d="M79.27 124.215l-7.99 3.465" stroke-width="1.2" stroke="#000" stroke-miterlimit="10" fill="none"/><path d="M71.28 127.68l-7.983 3.468M63.297 131.148l-7.5-4.425" stroke-width="1.2" stroke="#00f" stroke-miterlimit="10" fill="none"/><path d="M55.797 126.723l-7.496-4.426M59.516 148.145l1.89-8.5" stroke-width="1.2" stroke="#000" stroke-miterlimit="10" fill="none"/><path d="M61.406 139.645l1.89-8.497" stroke-width="1.2" stroke="#00f" stroke-miterlimit="10" fill="none"/><path d="M60.297 125.648h7v11h-7zm0 0" fill="#fff"/><use xlink:href="#a" x="60.297" y="134.312" fill="#00f"/><path d="M48.3 122.297l-13.05 11.53M49.707 126.523l-10.44 9.223M35.25 133.828l6.93 15.973M42.18 149.8l17.336-1.655M43.523 145.555l13.868-1.325M59.516 148.145l11.527 13.046M69.102 160.543l-2.77 8.254" stroke-width="1.2" stroke="#000" stroke-miterlimit="10" fill="none"/><path d="M66.332 168.797l-2.77 8.254" stroke-width="1.2" stroke="#f00" stroke-miterlimit="10" fill="none"/><path d="M72.984 161.844l-2.77 8.254" stroke-width="1.2" stroke="#000" stroke-miterlimit="10" fill="none"/><path d="M70.215 170.098l-2.766 8.254" stroke-width="1.2" stroke="#f00" stroke-miterlimit="10" fill="none"/><path d="M71.043 161.19l8.53-1.725" stroke-width="1.2" stroke="#000" stroke-miterlimit="10" fill="none"/><path d="M79.574 159.465l8.535-1.73" stroke-width="1.2" stroke="#00f" stroke-miterlimit="10" fill="none"/><path d="M57.504 172.203h8v11h-8zm0 0" fill="#fff"/><use xlink:href="#b" x="57.504" y="180.866" fill="#f00"/><path d="M88.11 157.734l5.76 6.524" stroke-width="1.2" stroke="#00f" stroke-miterlimit="10" fill="none"/><path d="M93.87 164.258l5.767 6.527M93.645 141.227l-2.77 8.253" stroke-width="1.2" stroke="#000" stroke-miterlimit="10" fill="none"/><path d="M90.875 149.48l-2.766 8.254" stroke-width="1.2" stroke="#00f" stroke-miterlimit="10" fill="none"/><path d="M85.11 152.234h7v11h-7zm0 0" fill="#fff"/><use xlink:href="#a" x="85.109" y="160.897" fill="#00f"/><path d="M99.637 170.785l17.062-3.46M116.7 167.324l5.538-16.508M122.238 150.816l-11.527-13.05M122.238 150.816l11.528 13.05M127.773 134.31l-5.535 16.506M110.71 137.766l-17.065 3.46M133.766 163.867l17.066-3.46M150.832 160.406l2.77-8.254" stroke-width="1.2" stroke="#000" stroke-miterlimit="10" fill="none"/><path d="M153.602 152.152l2.765-8.254M156.367 143.898l-5.762-6.523" stroke-width="1.2" stroke="#00f" stroke-miterlimit="10" fill="none"/><path d="M150.605 137.375l-5.765-6.527" stroke-width="1.2" stroke="#000" stroke-miterlimit="10" fill="none"/><path d="M156.367 143.898l8.535-1.73" stroke-width="1.2" stroke="#00f" stroke-miterlimit="10" fill="none"/><path d="M164.902 142.168l8.532-1.727" stroke-width="1.2" stroke="#000" stroke-miterlimit="10" fill="none"/><path d="M153.367 138.398h7v11h-7zm0 0" fill="#fff"/><use xlink:href="#a" x="153.367" y="147.062" fill="#00f"/><path d="M144.84 130.848l-17.067 3.46M175.375 141.09l2.77-8.254" stroke-width="1.2" stroke="#000" stroke-miterlimit="10" fill="none"/><path d="M178.145 132.836l2.77-8.254" stroke-width="1.2" stroke="#f00" stroke-miterlimit="10" fill="none"/><path d="M171.492 139.79l2.77-8.255" stroke-width="1.2" stroke="#000" stroke-miterlimit="10" fill="none"/><path d="M174.262 131.535l2.765-8.254" stroke-width="1.2" stroke="#f00" stroke-miterlimit="10" fill="none"/><path d="M173.434 140.44l5.765 6.525" stroke-width="1.2" stroke="#000" stroke-miterlimit="10" fill="none"/><path d="M179.2 146.965l5.76 6.523" stroke-width="1.2" stroke="#00f" stroke-miterlimit="10" fill="none"/><path d="M174.97 118.434h8v11h-8zm0 0" fill="#fff"/><use xlink:href="#b" x="174.969" y="127.097" fill="#f00"/><path d="M184.96 153.488l8.532-1.726" stroke-width="1.2" stroke="#00f" stroke-miterlimit="10" fill="none"/><path d="M193.492 151.762l8.535-1.73" stroke-width="1.2" stroke="#000" stroke-miterlimit="10" fill="none"/><path d="M177.96 147.988h14v11h-14zm0 0" fill="#fff"/><g fill="#00f"><use xlink:href="#a" x="177.961" y="156.651"/><use xlink:href="#c" x="184.938" y="156.651"/></g><path d="M202.027 150.03l11.528 13.052M206.25 148.625l9.223 10.438M207.563 133.523l-5.536 16.508M213.555 163.082l17.066-3.46M230.62 159.62l5.536-16.507M227.29 156.668l4.43-13.207M236.156 143.113l-11.527-13.05M236.156 143.113l8.53-1.73" stroke-width="1.2" stroke="#000" stroke-miterlimit="10" fill="none"/><path d="M244.688 141.383l8.535-1.73" stroke-width="1.2" stroke="#f00" stroke-miterlimit="10" fill="none"/><path d="M224.63 130.063l-17.067 3.46M223.734 134.426l-13.648 2.765" stroke-width="1.2" stroke="#000" stroke-miterlimit="10" fill="none"/><path d="M253.223 139.652l5.76 6.528" stroke-width="1.2" stroke="#f00" stroke-miterlimit="10" fill="none"/><path d="M258.984 146.18l5.766 6.523" stroke-width="1.2" stroke="#000" stroke-miterlimit="10" fill="none"/><path d="M249.223 134.152h8v11h-8zm0 0" fill="#fff"/><use xlink:href="#b" x="249.223" y="142.815" fill="#f00"/></g></svg>
